X:1
T:Verbum Pacis, 66.84
T:Verbum Pacis, 66.84
T:William Henry Monk, 1889
T:Public Domain Courtesy of the Cyber Hymnal™
C:William Henry Monk, 1889
Z:Public Domain
Z:Courtesy of the Cyber Hymnal™
%%score ( 1 2 ) ( 3 4 )
L:1/8
M:3/4
K:Eb
V:1 treble 
V:2 treble 
V:3 bass 
V:4 bass 
V:1
 [B,G]2 E2 [EG]2 | [EB]4 [EA]2 | [EG]4 [DF]2 | (E2 c2) [EB]2 | =A3 z G [EA]2 | [DB]4 [FB]2 | %6
 ([FB]2 [Fc]2) [Fd]2 | [Ee]4 [EG]2 | [EA]4 [GB]2 | [Ac]4 [Ec]2 | B6- | B4 C [DA]2 | [EG]6 |] %13
V:2
 x2 E2 x2 | x6 | x6 | E4 x2 | E2 F2 x3 | x6 | x6 | x6 | x6 | x6 | E2 F2 E2 | D3 x4 | x6 |] %13
V:3
 [E,B,]2 [E,G,]2 [E,E]2 | [E,D]4 [E,C]2 | [E,B,]4 [B,,A,]2 | [C,G,]4 [C,G,]2 | (F,2 D2) [F,,C]2 x | %5
 [B,,B,]4 [B,D]2 | ([B,D]2 [=A,C]2) [_A,B,]2 | B,4 B,2 | (A,2 E2) [B,,_D]2 | [A,,C]4 [A,,A,]2 | %10
 G,2 A,2 G,2 | [B,,F,]4 [B,,B,]2 x | [E,B,]6 |] %13
V:4
 x6 | x6 | x6 | x6 | F,4 x3 | x6 | x6 | (G,3 F,) (E,_D,) | C,4 x2 | x6 | B,,6- | x7 | x6 |] %13

